X:1
T:Lascia Ch'io Pianga
T:Lascia Ch'io Pianga
T:Georg Frideric Handel
T:for Baroque Flute (A=415) and Piano
C:Georg Frideric Handel
%%score 1 { ( 2 4 ) | ( 3 5 ) }
L:1/8
Q:1/4=64
M:3/4
K:F#
V:1 treble transpose=-1 nm="Flute" snm="Fl."
V:2 treble nm="Piano" snm="Pno."
V:4 treble 
V:3 bass 
V:5 bass 
V:1
[K:G] z6 | z6 | z6 | z6 | z6 | z6 | z6 | z6 | B2 B2 z B | c2 c2 z2 | A2 d3 c | c2 B2 z2 | %12
 e2 e2 (3(fga) | d2 d2 z g | (BA B2) (AG) | G4 z2 | B2 g3 e | ^c2 c2 z2 | e2 a3 f | (d^c) d2 z g | %20
 (fe f2) (ed) | d6 | B2 B2 z B | c2 c2 z2 | A2 d3 c | (cB) B2 z2 | e2 e2 (3(fga) | d2 d2 z g | %28
 (BA B2) (AG) | G4 z2 | z6 | z6 | z6 | z6 | z6 | z6 | z6 | z6 | B2 e3 f | (^d^c) B2 z2 | %40
 B2 (e^d e)f | (gf) g4 | g2 (ag) fe | (a^c) d2 z c | (de)(f !invertedturn!e2 d/e/) | (f^A B2) z2 | %46
 (gf) (ed) (^cB) | f2 ^A2 z e | (d^c) (Tc3 B) | B4 z2 | B2 B2 z B | (c(3d/c/B/) (c3 (3d/c/B/) | %52
 (A/B/4c/4d/4e/4f/4g/4 a3) (d | c>B B2) z2 | e2 e2 (3(f/g/a/(3g/f/e/) | (d-d/4e/4d/4^c/4) d2 z (g | %56
 (B>A B2)) (A>G) | G4 z2 | B2 (e>f g/f/e/d/) | (^c>B A2) z2 | (e2 (3A/B/^c/(3d/e/f/ (3g/a/g/f/e/) | %61
 (3(d/e/d/^c/d/- d2) z g | ((f>e f2)) (e>d) | d6 | B2 B2 z e | (c3/2(3d/4c/4B/4) c3 (d/c/4B/4) | %66
 (A/B/4c/4d/4e/4f/4g/4 a3) c | (c3/2B/4A/4 B2) z2 | e2 e2 (3((f/g/a/(3g/f/))e/ | %69
 (d-d/4e/4d/4^c/4 d2) z g | ((B>A B2)) (A>G) | G4 z2 | z6 | z6 | z6 | z6 | z6 | z6 | z6 | z6 |] %80
V:2
 [FA]2 [FA]2 z [FA] | [DB]2 [DB]2 z2 | ([FG]2 [EGc]3 [EGB] | B2 A2) z2 | [Bd]2 [Bd]2 (3(efg) | %5
 [Ec]2 [Ac]2 z ([Ff] | A>G A2 G>F | F6) | [FA]2 [FA]2 z [FA] | [DB]2 [DB]2 z2 | %10
 ([FG]2 [EGc]3 [EGB] | B2 A2) z2 | [Bd]2 [Bd]2 (3(efg) | [Ec]2 [Ac]2 z ([Ff] | A>G A2 G>F | F6) | %16
 A2 f3 d | [DF^B]2 [DGB]2 z2 | d2 g3 e | (c^B) [FAc]2 z ([Af] | e>d e2 d>c | [EGc]6) | %22
 [FA]2 [FA]2 z [FA] | [DB]2 [DB]2 z2 | ([FG]2 [EGc]3 [EGB] | B2 A2) z2 | [Bd]2 [Bd]2 (3(efg) | %27
 [Ec]2 [Ac]2 z ([Ff] | A>G A2 G>F | F6) | [FA]2 [FA]2 z [FA] | [DB]2 [DB]2 z2 | %32
 ([FG]2 [EGc]3 [EGB] | B2 A2) z2 | [Bd]2 [Bd]2 (3(efg) | [Ec]2 [Ac]2 z ([Ff] | A>G A2 G>F | F6) | %38
 [FA]2 [Fd]3 [Ge] | [E^^c]2 [^^CA]2 z2 | [FA]2 [Fd]3 [Ge] | (fe) f2 z2 | (f2 gf ed | g^B c2 z B) | %44
 (cd) !invertedturn!d3 c/d/ | (e^^G A2) z2 | (fe) (dc) (^BA) | e2 ^^G2 z [Ed] | %48
 ([Ac][F^B]) ([EB]3 A) | [CA]4 z2 | [FA]2 [FA]2 z [FA] | [DB]2 [DB]2 z2 | ([FG]2 [EGc]3 [EGB] | %53
 B2 A2) z2 | [Bd]2 [Bd]2 (3(efg) | [Ec]2 [Ac]2 z ([Ff] | A>G A2 G>F | F6) | A2 f3 d | %59
 [DF^B]2 [DGB]2 z2 | d2 g3 e | (c^B) [FAc]2 z ([Af] | e>d e2 d>c | [EGc]6) | [FA]2 [FA]2 z [FA] | %65
 [DB]2 [DB]2 z2 | ([FG]2 [EGc]3 [EGB] | B2 A2) z2 | [Bd]2 [Bd]2 (3(efg) | [Ec]2 [Ac]2 z ([Ff] | %70
 A>G A2 G>F | F6) | [FA]2 [FA]2 z [FA] | [DB]2 [DB]2 z2 | ([FG]2 [EGc]3 [EGB] | B2 A2) z2 | %76
 [Bd]2 [Bd]2 (3(efg) | [Ec]2 [Ac]2 z ([Ff] | A>G A2 G>F | F6) |] %80
V:3
 [F,A,C]2 [F,A,C]2 z [F,A,C] | [F,B,D]2 [F,B,D]2 z2 | [E,C]2 [E,C]3 [E,C] | %3
 [F,A,C]2 [F,A,C] E,D,C, | [F,B,D]2 [G,B,D]2 z2 | [E,G,C]2 [F,A,C]2 z [F,A,C] | %6
 [F,B,D]2 [F,A,C]2 [E,B,C]2 | [F,A,C]6 | [F,A,C]2 [F,A,C]2 z [F,A,C] | [F,B,D]2 [F,B,D]2 z2 | %10
 [E,C]2 [E,C]3 [E,C] | [F,A,C]2 [F,A,C] E,D,C, | [F,B,D]2 [G,B,D]2 z2 | %13
 [E,G,C]2 [F,A,C]2 z [F,A,C] | [F,B,D]2 [F,A,C]2 [E,B,C]2 | [F,A,C]6 | [F,A,C]2 [F,A,D]4 | %17
 [G,^B,D]2 [G,B,D]2 z2 | [G,^B,D]2 [G,B,E]4 | [E,A,C]2 [F,A,C]2 z [F,A,C] | %20
 [E,G,C]2 [E,G,C]2 [F,G,^B,]2 | [C,E,G,C]3 B,,A,,G,, | [F,A,C]2 [F,A,C]2 z [F,A,C] | %23
 [F,B,D]2 [F,B,D]2 z2 | [E,C]2 [E,C]3 [E,C] | [F,A,C]2 [F,A,C] E,D,C, | [F,B,D]2 [G,B,D]2 z2 | %27
 [E,G,C]2 [F,A,C]2 z [F,A,C] | [F,B,D]2 [F,A,C]2 [E,B,C]2 | [F,A,C]6 | %30
 [F,A,C]2 [F,A,C]2 z [F,A,C] | [F,B,D]2 [F,B,D]2 z2 | [E,C]2 [E,C]3 [E,C] | %33
 [F,A,C]2 [F,A,C] E,D,C, | [F,B,D]2 [G,B,D]2 z2 | [E,G,C]2 [F,A,C]2 z [F,A,C] | %36
 [F,B,D]2 [F,A,C]2 [E,B,C]2 | [F,A,C]6 | [F,A,D]2 [F,A,D]3 [G,B,D] | [E,A,^^C]2 [E,A,C]2 x2 | %40
 [F,A,C]2 [F,B,D]3 [G,B,D] | [F,A,D]2 [F,A,D]2 z2 | [G,^B,D]4 [G,B,D]2 | [G,^B,E]2 [A,CE]2 z2 | %44
 [F,A,C]2 [F,A,D]2 [G,^B,D]2 | [E,G,C][E,B,D] [F,A,C]2 z2 | [F,A,D]2 [F,A,D]2 z2 | %47
 [E,A,C]2 [E,^B,D]2 z [E,B,D] | [E,A,C][F,A,D] [^^G,^B,E]4 | [A,CE]3 z z2 | %50
 [F,A,C]2 [F,A,C]2 z [F,A,C] | [F,B,D]2 [F,B,D]2 z2 | [E,C]2 [E,C]3 [E,C] | %53
 [F,A,C]2 [F,A,C] E,D,C, | [F,B,D]2 [G,B,D]2 z2 | [E,G,C]2 [F,A,C]2 z [F,A,C] | %56
 [F,B,D]2 [F,A,C]2 [E,B,C]2 | [F,A,C]6 | [F,A,C]2 [F,A,D]4 | [G,^B,D]2 [G,B,D]2 z2 | %60
 [G,^B,D]2 [G,B,E]4 | [E,A,C]2 [F,A,C]2 z [F,A,C] | [E,G,C]2 [E,G,C]2 [F,G,^B,]2 | %63
 [C,E,G,C]3 B,,A,,G,, | [F,A,C]2 [F,A,C]2 z [F,A,C] | [F,B,D]2 [F,B,D]2 z2 | [E,C]2 [E,C]3 [E,C] | %67
 [F,A,C]2 [F,A,C] E,D,C, | [F,B,D]2 [G,B,D]2 z2 | [E,G,C]2 [F,A,C]2 z [F,A,C] | %70
 [F,B,D]2 [F,A,C]2 [E,B,C]2 | [F,A,C]6 | [F,A,C]2 [F,A,C]2 z [F,A,C] | [F,B,D]2 [F,B,D]2 z2 | %74
 [E,C]2 [E,C]3 [E,C] | [F,A,C]2 [F,A,C] E,D,C, | [F,B,D]2 [G,B,D]2 z2 | %77
 [E,G,C]2 [F,A,C]2 z [F,A,C] | [F,B,D]2 [F,A,C]2 [E,B,C]2 | [F,A,C]6 |] %80
V:4
 x6 | x6 | x6 | F4 z2 | x6 | x6 | F2 F2 E2 | x6 | x6 | x6 | x6 | F4 z2 | x6 | x6 | F2 F2 E2 | x6 | %16
 F2 A4 | x6 | ^B2 B4 | G2 x4 | G2 G2 F2 | x6 | x6 | x6 | x6 | F4 z2 | x6 | x6 | F2 F2 E2 | x6 | %30
 x6 | x6 | x6 | F4 z2 | x6 | x6 | F2 F2 E2 | x6 | x6 | x6 | x6 | A2 A2 z2 | ^B4 F2 | G2 E2 z2 | %44
 A2 F2 z2 | E2 C2 z2 | A2 F2 x2 | x6 | x3 z{A} ^^GA | x6 | x6 | x6 | x6 | F4 z2 | x6 | x6 | %56
 F2 F2 E2 | x6 | F2 A4 | x6 | ^B2 B4 | G2 x4 | G2 G2 F2 | x6 | x6 | x6 | x6 | F4 z2 | x6 | x6 | %70
 F2 F2 E2 | x6 | x6 | x6 | x6 | F4 z2 | x6 | x6 | F2 F2 E2 | x6 |] %80
V:5
 x6 | x6 | x6 | x6 | x6 | x6 | x6 | x6 | x6 | x6 | x6 | x6 | x6 | x6 | x6 | x6 | x6 | x6 | x6 | %19
 x6 | x6 | x6 | x6 | x6 | x6 | x6 | x6 | x6 | x6 | x6 | x6 | x6 | x6 | x6 | x6 | x6 | x6 | x6 | %38
 x6 | A,,3 B,,A,,G,, | x6 | x6 | x6 | x6 | x6 | x6 | x6 | x6 | x6 | A,,3 B,,A,,^G,, | x6 | x6 | %52
 x6 | x6 | x6 | x6 | x6 | x6 | x6 | x6 | x6 | x6 | x6 | x6 | x6 | x6 | x6 | x6 | x6 | x6 | x6 | %71
 x6 | x6 | x6 | x6 | x6 | x6 | x6 | x6 | x6 |] %80

